berloni/img/design-icon.svg

<svg width="79" height="40" viewBox="0 0 79 40" fill="none" xmlns="http://www.w3.org/2000/svg">
<path d="M60.2198 38.9163C60.2198 39.2837 60.5048 39.5815 60.8562 39.5815C61.6292 39.5816 75.5595 39.5815 76.1638 39.5815C77.452 39.5815 78.5 38.4862 78.5 37.1397L78.5 35.4654C78.5 34.1191 77.452 33.0236 76.1638 33.0236C75.7755 33.0236 45.8622 33.0236 45.1589 33.0236L45.1565 33.0237C45.0859 33.024 45.0008 33.0391 44.9271 33.0693C44.4333 33.2712 40.2485 34.982 39.7667 35.1789C38.7202 35.6068 38.722 36.999 39.7667 37.426C40.2479 37.6227 44.4393 39.3363 44.9271 39.5356C44.9926 39.5624 45.0785 39.5809 45.1565 39.5812L45.1589 39.5813L62.8916 39.5813C63.2431 39.5813 63.528 39.2835 63.528 38.9161C63.528 38.5488 63.2431 38.2509 62.8916 38.2509L45.7955 38.2509L45.7955 38.9163L70.6085 38.9163L70.6085 38.2509L60.8563 38.2509C60.5048 38.251 60.2198 38.5489 60.2198 38.9163Z" fill="#EE3425"/>
<path d="M10.3212 0.194858L0.722076 10.228C0.605736 10.3496 0.535644 10.5229 0.535644 10.6984L0.535644 28.4836C0.535644 29.5541 1.36886 30.425 2.39292 30.425L42.0672 30.425C43.1234 30.425 43.9827 29.5269 43.9827 28.4229L43.9827 1.96653C43.9827 0.882063 43.1386 4.5114e-08 42.1012 9.04596e-08L10.7712 1.45994e-06C10.6087 1.46704e-06 10.4439 0.0664287 10.3212 0.194858Z" fill="#EE3425"/>
<path d="M8.30663 4.22137L4.73497 7.8547C4.11042 8.49003 4.5658 9.56332 5.45667 9.55569L9.05916 9.52485C9.61142 9.52013 10.0553 9.0686 10.0506 8.51633L10.0197 4.91384C10.0121 4.02297 8.93118 3.58604 8.30663 4.22137Z" fill="white"/>
<ellipse cx="20.9827" cy="18.4996" rx="7" ry="7" transform="rotate(-90 20.9827 18.4996)" fill="white"/>
<rect x="21.9827" y="17.4996" width="12" height="12" rx="1" transform="rotate(-90 21.9827 17.4996)" fill="white" stroke="#EE3425" stroke-width="2"/>
</svg>

<svg width="79" height="40" fill="none" xmlns="http://www.w3.org/2000/svg"><path d="M60.22 38.916c0 .368.285.666.636.666h15.308c1.288 0 2.336-1.096 2.336-2.442v-1.675c0-1.346-1.048-2.441-2.336-2.441H45.157a.64.64 0 0 0-.23.045l-5.16 2.11a1.197 1.197 0 0 0 0 2.247l5.16 2.11a.646.646 0 0 0 .23.045h17.735c.351 0 .636-.298.636-.665 0-.367-.285-.665-.636-.665H45.795v.665H70.61v-.665h-9.753c-.351 0-.636.298-.636.665zM10.321.195L.722 10.228a.69.69 0 0 0-.186.47v17.786c0 1.07.833 1.941 1.857 1.941h39.674c1.056 0 1.916-.898 1.916-2.002V1.967C43.983.882 43.139 0 42.1 0h-31.33a.624.624 0 0 0-.45.195z" fill="#EE3425"/><path d="M8.307 4.221L4.735 7.855c-.625.635-.17 1.708.722 1.7l3.602-.03a1 1 0 0 0 .992-1.009l-.031-3.602c-.008-.891-1.089-1.328-1.713-.693z" fill="#fff"/><ellipse cx="20.983" cy="18.5" rx="7" ry="7" transform="rotate(-90 20.983 18.5)" fill="#fff"/><rect x="21.983" y="17.5" width="12" height="12" rx="1" transform="rotate(-90 21.983 17.5)" fill="#fff" stroke="#EE3425" stroke-width="2"/></svg>
